X: 3821
T: Black Dance, The
R: reel
M: 4/4
K: Amajor
ec|:A2A2 BcdB|efed c2ec|A2A2 BcdB|1 e6 ec:|2 A6 fg||
|:a2a2 a2gf|e2e2 e2cB|1 A2Bc e2dc|B2B2 B2fg:|2 A2 Bc d2cB|A2A2 A4||

